!!!OTL: DIE FAHNEN WEHEN FRISCH AUF ZUR SCHLACHT
!!!ARE: Europa, Mitteleuropa, Deutschland
!!!SCT: F0563
!!!YEM: Copyright 1995, estate of Helmut Schaffrath.
**kern
*ICvox
*Ivox
*M4/4
*k[f#]
*G:
{8dd
=1
4dd
4dd
4dd
8dd
8dd
=2
4b
4dd
4g}
{4d
=3
8g
8d
8b
8g
4dd
8r}
{8d
=4
4g
4dd
4dd
8cc
8b
=5
4a
4a
4a
8r}
{8dd
=6
4b
4a
4g
8r}
{8b
=7
8a
8b
8cc
8a
4b
8g
8g
=8
8a
8b
8cc
8a
4dd
8r}
{8dd
=9
4dd
8b
8dd
4g}
{8d
8d
=10
4g
8g
8b
4dd
4dd
=11
2b
4.r}
==
!!!AGN: Soldaten -, Kriegs - Lied
!!!ONB: ESAC (Essen Associative Code) Database: FINK
!!!AMT: simple quadruple
!!!AIN: vox
!!!EED: Helmut Schaffrath
!!!EEV: 1.0
*-
